X:4725
T:O'er The Muir To Maggy. HSJJ.152
O:england
M:4/4
L:1/8
Q:180
S:HSJ Jackson,Wyresdale,Lancs.1823
R:Scots Measure
A:Lancashire
H:1823
K:G
f>e|d2B2g2B2|A2a4f>e|d2B2g2B2|d2g2d3B|
c2e2B2g2|agfe (f>gag|gage dBGB|d2g2-g2:|
|:f>e|dBgAG3B|A2a4f>e|dBGB GABc|dgfe dedB|
cecA BdBG|Aaga ~fgaf|gage dBGB|d2g2g2:|]


